!!!COM: Scarlatti, Domenico
!!!CDT: 1685///-1757///
!!!OTL: Sonata in G Major, K.146, L.349
!!!SCT: K. 146
!!!SCT: L. 349
!!!OMD: Allegretto
**kern	**kern	**dynam
*staff2	*staff1	*staff1/2
*Icemba	*Icemba	*Icemba
*>[A,A,B,B]	*>[A,A,B,B]	*>[A,A,B,B]
*>norep[A,B]	*>norep[A,B]	*>norep[A,B]
*>A	*>A	*>A
*clefG2	*clefG2	*clefG2
*k[f#]	*k[f#]	*k[f#]
*G:	*G:	*G:
*M3/8	*M3/8	*M3/8
*MM72	*MM72	*MM72
=1-	=1-	=1-
(8g/ 8b/L	(16dd\LL	f
.	32cc\L	.
.	32dd\JJJ	.
8cc'/)	8ee'\L)	.
8a'/J	8ff#'\J	.
=2	=2	=2
8g'/	32r	.
.	(32gg\LLL	.
.	32dd\	.
.	32b\JJJ	.
*clefF4	*	*
32r	8g'/)	.
(32g\LLL	.	.
32d\	.	.
32B\JJJ	.	.
8GG'/)	8r	.
*clefG2	*	*
=3	=3	=3
(8g/ 8b/L	(16dd\LL	p
.	32cc\L	.
.	32dd\JJJ	.
8cc'/)	8ee\L)	.
8a'/J	8ff#'\J	.
=4	=4	=4
8g'/	(32gg\LLL	.
.	32bb\	.
.	32gg\	.
.	32dd\JJJ	.
*clefF4	*	*
32r	8b'\)	.
32g\LLL	.	.
32d\	.	.
32B\JJJ	.	.
8GG'/	8r	.
*clefG2	*	*
=5	=5	=5
(16b/LL	16dd\LL	p
16g/	16bb\	.
16a/	16cc\	.
16f#/J	16aa\	.
8g/J	16b\	.
.	16gg\JJ	.
=6	=6	=6
8d'/)	32a\LLL	mf
.	32ff#\	.
.	32dd\	.
.	32a\JJJ	.
*clefF4	*	*
32r	8f#'/	.
(32d\LLL	.	.
32A\	.	.
32F#\JJJ	.	.
8DD/)	8r	.
=7	=7	=7
8d\ (8f#\L	(16a/LL	f
.	32g/L	.
.	32a/JJJ	.
8g'\)	8b'/L)	.
8e'\J	8cc#'/J	.
=8	=8	=8
8d'\	32r	.
.	(32dd/LLL	.
.	32a/	.
.	32f#/JJJ	.
32r	8d'/)	.
(32d\LLL	.	.
32A\	.	.
32F#\JJJ	.	.
8DD'/)	8r	.
*clefG2	*	*
=9	=9	=9
16f#/LL	16a\LL	p
16d/	16dd\	.
16g/	16b\	.
16e/	16ee\	.
16a/	16cc#\	.
16f#/JJ	16ff#\JJ	.
=10	=10	=10
16b/LL	16dd\LL	.
16g/	16gg\	.
16cc#/	16ee\	.
16a/	16aa\	.
16dd/	16ff#\	.
16cc#/JJ	16ee\JJ	.
=11	=11	=11
16b/LL	16gg\LL	.
16a/	16ff#\	.
16g/	16ee\	.
16a/	16ff#\	.
16b/	16ee\	.
16g/JJ	16dd\JJ	.
=12	=12	=12
16a/LL	16aa\LL	.
16cc#/	16ee\	.
16dd/	16ffn\	.
16ccn/	16ee\	.
16b-/	16gg\	.
16a/JJ	16ff\JJ	.
=13	=13	=13
16g/LL	16bb-\LL	<
16b-/	16cc#\	(
16a/	16ffn\	(
16g/	16ee\	(
16fn/	16dd\	(
16e/JJ	16cc#\JJ	(
*clefF4	*	*
=14	=14	=14
16d\LL	16dd\LL	(
16c#\	16aa\	(
16Bn\	16gg\	(
16A\	16ff#\	(
16G\	16ee\	(
16B\JJ	16dd\JJ	[
=15	=15	=15
8A\L	(8cc#\L	mf
8E\	16b\L	.
.	16cc#\J	.
8AA\J	8a'\J)	.
=16	=16	=16
4.r	(32g#/LLL	p
.	32a/JJJ	.
.	32g#\LLL	.
.	32a\JJJ	.
.	32cc#/LLL	.
.	32dd/JJJ	.
.	32cc#\LLL	.
.	32dd\JJJ	.
.	32dd#/LLL	.
.	32ee/JJJ	.
.	32dd#\LLL	.
.	32ee\JJJ	.
=17	=17	=17
*	*^	*
4.r	8ee/ 8ggn/L	4.a^\)	f
*	*v	*v	*
*	*^	*
.	8ddn'/ 8ff#'/	.	.
.	8cc#/ 8ee/J	.	.
*	*v	*v	*
=18	=18	=18
4.r	(32g#/LLL	p
.	32a/JJJ	.
.	32g#\LLL	.
.	32a\JJJ	.
.	32cc#/LLL	.
.	32dd/JJJ	.
.	32cc#\LLL	.
.	32dd\JJJ	.
.	32dd#/LLL	.
.	32ee/JJJ	.
.	32dd#\LLL	.
.	32ee\JJJ	.
=19	=19	=19
*	*^	*
4.r	8ff#/ 8aa/L)	4.a^\	f
*	*v	*v	*
*	*^	*
.	8ee'/ 8gg'/	.	.
.	8ddn/ 8ff#/J	.	.
*	*v	*v	*
=20	=20	=20
4.r	(32g#/LLL	p
.	32a/JJJ	.
.	32g#\LLL	.
.	32a\JJJ	.
.	32cc#/LLL	.
.	32dd/JJJ	.
.	32cc#\LLL	.
.	32dd\JJJ	.
.	32dd#/LLL	.
.	32ee/JJJ	.
.	32dd#\LLL	.
.	32ee\JJJ	.
=21	=21	=21
*	*^	*
4.r	8gg'/ 8bb'/L)	[4.a^\	f
.	8ff#'/ 8aa'/	.	.
.	8ee'/ 8gg'/J	.	.
=22	=22	=22	=22
4.r	8dd'/ 8ff#'/	4.a\]	>
.	(ddq/	.	)
.	4cc#/) 4ee/	.	]
*	*v	*v	*
=23	=23	=23
4.r	32c#/LLL	p
.	32d/JJJ	.
.	32c#\LLL	.
.	32d\JJJ	.
.	32d#/LLL	.
.	32e/JJJ	.
.	32d#\LLL	.
.	32e\JJJ	.
.	32f#/LLL	.
.	32g/JJJ	.
.	32f#\LLL	.
.	32g\JJJ	.
=24	=24	=24
4.r	32g#/LLL	.
.	32a/JJJ	.
.	32g#\LLL	.
.	32a\JJJ	.
.	32a#/LLL	.
.	32b/JJJ	.
.	32a#\LLL	.
.	32b\JJJ	.
.	32cc#/LLL	.
.	32dd/JJJ	.
.	32cc#\LLL	.
.	32dd\JJJ	.
=25	=25	=25
(8g\L	32r	.
.	32b\LLL	f
.	32bb\	.
.	32aa\JJJ	.
8a'\)	32gg\LLL	.
.	32ff#\	.
.	32ee\	.
.	32dd\JJJ	.
8A'\J	32cc#\LLL	.
.	32b\	.
.	32a\	.
.	32ee\JJJ	.
=26	=26	=26
([4D\	32r	.
.	32dd\LLL	.
.	32cc#\	.
.	32b\JJJ	.
.	32a/LLL	.
.	32g/	.
.	32f#/	.
.	32e/JJJ	.
32D\LLL]	8d'/	.
32F#\	.	.
32A\	.	.
32d\JJJ)	.	.
=27	=27	=27
4.r	32c#/LLL	p
.	32d/JJJ	.
.	32c#\LLL	.
.	32d\JJJ	.
.	32d#/LLL	.
.	32e/JJJ	.
.	32d#\LLL	.
.	32e\JJJ	.
.	32f#/LLL	.
.	32g/JJJ	.
.	32f#\LLL	.
.	32g\JJJ	.
=28	=28	=28
4.r	32g#/LLL	.
.	32a/JJJ	.
.	32g#\LLL	.
.	32a\JJJ	.
.	32a#/LLL	.
.	32b/JJJ	.
.	32a#\LLL	.
.	32b\JJJ	.
.	32cc#/LLL	.
.	32dd/JJJ	.
.	32cc#\LLL	.
.	32dd\JJJ	.
=29	=29	=29
8g\L	32r	f
.	(32b\LLL	.
.	32bb\	.
.	32aa\JJJ	.
8a'\	32gg\LLL	.
.	32ff#\	.
.	32ee\	.
.	32dd\JJJ	.
8A'\J	32cc#\LLL	.
.	32b\	.
.	32a\	.
.	32ee\JJJ	.
=30	=30	=30
32D\LLL	8dd\)	.
32F#\	.	.
32A\	.	.
32d\JJJ	.	.
8r	(32ff#\LLL	.
.	32aa\	.
.	32ff#\	.
.	32dd\JJJ	.
8r	32a\LLL	.
.	32ff#\	.
.	32dd\	.
.	32a\JJJ	.
=31	=31	=31
32D\LLL	8f#'/)	>
32F#\	.	)
32A\	.	)
32d\JJJ	.	)
8r	(32dd\LLL	)
.	32ff#\	)
.	32dd\	)
.	32a\JJJ	)
8r	32f#/LLL	)
.	32dd/	)
.	32a/	)
.	32f#/JJJ	)
=32	=32	=32
32D\LLL	8d'/)	)
32F#\	.	)
32A\	.	)
32d\JJJ	.	)
8r	32a/LLL	)
.	32dd/	)
.	32a/	)
.	32f#/JJJ	)
8r	32d/LLL	)
.	32a/	)
.	32f#/	]
.	32d/JJJ	p
=33	=33	=33
4DD^/	4.r	.
8r	.	.
=34:|!|:	=34:|!|:	=34:|!|:
*>B	*>B	*>B
*^	*	*
(8f#/L	4.d\	(16a/LL	f
.	.	32g/L	.
.	.	32a/JJJ	.
8g'/)	.	8b'/L)	.
8e'/J	.	8cc#'/J	.
*v	*v	*	*
=35	=35	=35
8d'\	32r	.
.	(32dd/LLL	.
.	32a/	.
.	32f#/JJJ	.
32r	8d'/)	.
(32d\LLL	.	.
32A\	.	.
32F#\JJJ	.	.
8DD'/)	8r	.
=36	=36	=36
*^	*	*
(8f#/L	4.d\	(16a/LL	p
.	.	32g/L	.
.	.	32a/JJJ	.
8g'/)	.	8b'/L)	.
8e/J	.	8cc#'/J	.
*v	*v	*	*
=37	=37	=37
8d'\	(32dd\LLL	.
.	32ff#\	.
.	32dd\	.
.	32a\JJJ	.
32r	8f#'/)	.
(32d\LLL	.	.
32A\	.	.
32F#\JJJ	.	.
8DD'/)	8r	.
=38	=38	=38
(16d\LL	(16dd\LL	<
16fn\	16a\	(
16e\	16cc\	(
16d\	16b\	(
16c\	16a\	(
16B\JJ	16g#\JJ)	[
=39	=39	=39
8A'\)	32r	mf
.	32aa\LLL	.
.	32ee\	.
.	32cc\JJJ	.
32r	8a'/	.
(32a\LLL	.	.
32e\	.	.
32c\JJJ	.	.
8AA'/)	8r	.
*clefG2	*	*
=40	=40	=40
*^	*	*
(16cc/LL	4.a\	(16ee\LL	f
32b/L	.	32dd\L	.
32cc/JJJ	.	32ee\JJJ	.
8dd'/L)	.	8ff#'\L)	.
8b'/J	.	8gg#'\J	.
*v	*v	*	*
=41	=41	=41
8a'/	32r	.
.	(32aa\LLL	.
.	32ee\	.
.	32cc\JJJ	.
*clefF4	*	*
32r	8a'/)	.
32a\LLL	.	.
32e\	.	.
32c\JJJ	.	.
8AA'/	8r	.
=42	=42	=42
(16c\LL	(16ee\LL	p
16e\	16g\	.
16d\	16b\	.
16c\	16a\	.
16B\	16g\	.
16A\JJ	16f#\JJ)	.
=43	=43	=43
8G'\)	32r	mf
.	32gg\LLL	.
.	32dd\	.
.	32b\JJJ	.
32r	8g'/	.
(32g\LLL	.	.
32d\	.	.
32B\JJJ	.	.
8GG'/)	8r	.
=44	=44	=44
16B\LL	16d/LL	p
16G\	16g/	.
16c\	16e/	.
16A\	16a/	.
16d\	16f#/	.
16B\JJ	16b/JJ	.
=45	=45	=45
16e\LL	16g\LL	.
16c\	16cc\	.
16f#\	16a\	.
16d\	16dd\	.
16g\	16b\	.
16f#\JJ	16a\JJ	.
=46	=46	=46
16e\LL	16cc\LL	.
16d\	16b\	.
16c\	16a\	.
16d\	16b\	.
16e\	16a\	.
16c\JJ	16g\JJ	.
=47	=47	=47
16d\LL	16dd\LL	.
16f#\	16a\	.
16g\	16b-\	.
16fn\	16a\	.
16e-\	16cc\	.
16d\JJ	16b-\JJ	.
=48	=48	=48
16c\LL	16ee-\LL	<
16e-\	16f#\	(
16d\	16b-\	(
16c\	16a\	(
16B-\	16g\	(
16A\JJ	16f#\JJ	(
=49	=49	=49
16G\LL	16g\LL	(
16F#\	16dd\	(
16En\	16cc\	(
16D\	16bn\	(
16C\	16a\	(
16E\JJ	16g\JJ	[
=50	=50	=50
8D/L	(8f#/L	mf
8AA/	16e/L	.
.	16f#/JJ	.
8DD/J	8d'/)	.
=51	=51	=51
4.r	(32c#/LLL	p
.	32d/JJJ	.
.	32c#\LLL	.
.	32d\JJJ	.
.	32f#/LLL	.
.	32g/JJJ	.
.	32f#\LLL	.
.	32g\JJJ	.
.	32g#/LLL	.
.	32a/JJJ	.
.	32g#\LLL	.
.	32a\JJJ	.
=52	=52	=52
*	*^	*
4.r	8a'/ 8ccn'/L)	4.d^\	f
.	8gn'/ 8b'/	.	.
.	8f#'/ 8a'/J	.	.
*	*v	*v	*
=53	=53	=53
4.r	(32c#/LLL	p
.	32d/JJJ	.
.	32c#\LLL	.
.	32d\JJJ	.
.	32f#/LLL	.
.	32g/JJJ	.
.	32f#\LLL	.
.	32g\JJJ	.
.	32g#/LLL	.
.	32a/JJJ	.
.	32g#\LLL	.
.	32a\JJJ	.
=54	=54	=54
*	*^	*
4.r	8b'/ 8dd'/L)	4.d^\	f
*	*v	*v	*
*	*^	*
.	8a'/ 8ccn'/	.	.
.	8gn/ 8b/J	.	.
*	*v	*v	*
=55	=55	=55
4.r	(32c#/LLL	p
.	32d/JJJ	.
.	32c#\LLL	.
.	32d\JJJ	.
.	32f#/LLL	.
.	32g/JJJ	.
.	32f#\LLL	.
.	32g\JJJ	.
.	32g#/LLL	.
.	32a/JJJ	.
.	32g#\LLL	.
.	32a\JJJ	.
=56	=56	=56
*	*^	*
4.r	(8ccn'/ 8ee'/L)	4.d^\	f
.	8b'/ 8dd'/	.	.
.	8a'/ 8cc'/J	.	.
=57	=57	=57	=57
4.r	8g'/ 8b'/	4.d\)	.
.	(gq/	.	.
.	4f#/) 4a/	.	>
*	*v	*v	*
=58	=58	=58
32F#/LLL	4.r	)
32G/JJJ	.	)
32F#\LLL	.	)
32G\JJJ	.	)
32G#/LLL	.	)
32A/JJJ	.	)
32G#\LLL	.	)
32A\JJJ	.	)
32A#/LLL	.	)
32B/JJJ	.	)
32A#\LLL	.	)
32B\JJJ	.	]
=59	=59	=59
4.r	32c#/LLL	p
.	32d/JJJ	.
.	32c#\LLL	.
.	32d\JJJ	.
.	32d#/LLL	.
.	32e/JJJ	.
.	32d#\LLL	.
.	32e\JJJ	.
.	32f#/LLL	.
.	32g/JJJ	.
.	32f#\LLL	.
.	32g\JJJ	.
=60	=60	=60
(8c\L	32r	.
.	(32e/LLL	f
.	32ee/	.
.	32dd/JJJ	.
8d'\)	32cc/LLL	.
.	32b/	.
.	32a/	.
.	32g/JJJ	.
8D'\J	32f#/LLL	.
.	32e/	.
.	32d/	.
.	32a/JJJ)	.
=61	=61	=61
([4GG/	32r	.
.	(32g/LLL	.
.	32f#/	.
.	32e/JJJ	.
.	32d/LLL	.
.	32c/	.
.	32B/	.
.	32A/JJJ	.
32GG/LLL]	8G'/)	p
32BB/	.	.
32D/	.	.
32G/JJJ)	.	.
=62	=62	=62
32F#/LLL	4.r	.
32G/JJJ	.	.
32F#\LLL	.	.
32G\JJJ	.	.
32G#/LLL	.	.
32A/JJJ	.	.
32G#\LLL	.	.
32A\JJJ	.	.
32A#/LLL	.	.
32B/JJJ	.	.
32A#\LLL	.	.
32B\JJJ	.	.
=63	=63	=63
4.r	32c#/LLL	.
.	32d/JJJ	.
.	32c#\LLL	.
.	32d\JJJ	.
.	32d#/LLL	.
.	32e/JJJ	.
.	32d#\LLL	.
.	32e\JJJ	.
.	32f#/LLL	.
.	32g/JJJ	.
.	32f#\LLL	.
.	32g\JJJ	.
=64	=64	=64
8c\L	32r	.
.	(32e/LLL	f
.	32ee/	.
.	32dd/JJJ	.
8d'\	32cc/LLL	.
.	32b/	.
.	32a/	.
.	32g/JJJ	.
8D'\J	32f#/LLL	.
.	32e/	.
.	32d/	.
.	32a/JJJ	.
=65	=65	=65
32GG/LLL	8g'/)	.
32BB/	.	.
32D/	.	.
32G/JJJ	.	.
8r	(32gg\LLL	.
.	32bb\	.
.	32gg\	.
.	32dd\JJJ	.
8r	32b\LLL	.
.	32gg\	.
.	32dd\	.
.	32b\JJJ	.
=66	=66	=66
*k[]	*k[]	*k[]
32GG/LLL	8g'/)	>
32BB/	.	)
32D/	.	)
32G/JJJ	.	)
8r	(32dd\LLL	)
.	32gg\	)
.	32dd\	)
.	32b\JJJ	)
8r	32g\LLL	)
.	32dd\	)
.	32b\	)
.	32g\JJJ	)
=67	=67	=67
(32GG/LLL	8d'/)	)
32BB/	.	)
32D/	.	)
32G/JJJ)	.	)
8r	32g/LLL	)
.	32b/	)
.	32g/	)
.	32d/JJJ	)
8r	32B/LLL	)
.	32g/	)
.	32d/	]
.	32B/JJJ	p
=68	=68	=68
4GG^/	4.r	.
8r	.	.
==:|!	==:|!	==:|!
*-	*-	*-
!!!ENC: Craig Stuart Sapp
!!!END: 2004/11/03/
